Newaita-dark/actions/32/mail-forward.svg

<svg height="32" viewBox="0 0 32 32" width="32" xmlns="http://www.w3.org/2000/svg"><g fill="#e0e0e0"><path d="m24.476562 22.082031v2.644531h-7.988281c-.367187 0-.660156-.296874-.660156-.660156v-1.324218c0-.367188.292969-.660157.660156-.660157zm0 0"/><path d="m23.816406 26.710938v-6.617188l5.289063 3.308594zm0 0"/><path d="m26.460938 5.542969h-21.167969c-1.464844 0-2.648438 1.179687-2.648438 2.644531v15.878906c0 1.464844 1.183594 2.644532 2.648438 2.644532h7.9375v-2.644532h-6.617188c-.730469 0-1.320312-.589844-1.320312-1.324218v-12.9375l9.707031 8.628906c.5.445312 1.253906.445312 1.75 0l9.710938-8.628906v7.644531h2.644531v-9.261719c0-1.464844-1.179688-2.644531-2.644531-2.644531zm-19.019532 2.644531h16.871094l-8.4375 7.5zm0 0"/></g></svg>

<svg xmlns="http://www.w3.org/2000/svg" xmlns:xlink="http://www.w3.org/1999/xlink" width="32px" height="32px" viewBox="0 0 32 32" version="1.1">
<g id="surface1">
     <defs>
  <style id="current-color-scheme" type="text/css">
   .ColorScheme-Text { color:#eeeeee; } .ColorScheme-Highlight { color:#424242; }
  </style>
 </defs>
<path style="fill:currentColor" class="ColorScheme-Text" d="M 24.476562 22.082031 L 24.476562 24.726562 L 16.488281 24.726562 C 16.121094 24.726562 15.828125 24.429688 15.828125 24.066406 L 15.828125 22.742188 C 15.828125 22.375 16.121094 22.082031 16.488281 22.082031 Z M 24.476562 22.082031 "/>
     <defs>
  <style id="current-color-scheme" type="text/css">
   .ColorScheme-Text { color:#eeeeee; } .ColorScheme-Highlight { color:#424242; }
  </style>
 </defs>
<path style="fill:currentColor" class="ColorScheme-Text" d="M 23.816406 26.710938 L 23.816406 20.09375 L 29.105469 23.402344 Z M 23.816406 26.710938 "/>
     <defs>
  <style id="current-color-scheme" type="text/css">
   .ColorScheme-Text { color:#eeeeee; } .ColorScheme-Highlight { color:#424242; }
  </style>
 </defs>
<path style="fill:currentColor" class="ColorScheme-Text" d="M 26.460938 5.542969 L 5.292969 5.542969 C 3.828125 5.542969 2.644531 6.722656 2.644531 8.1875 L 2.644531 24.066406 C 2.644531 25.53125 3.828125 26.710938 5.292969 26.710938 L 13.230469 26.710938 L 13.230469 24.066406 L 6.613281 24.066406 C 5.882812 24.066406 5.292969 23.476562 5.292969 22.742188 L 5.292969 9.804688 L 15 18.433594 C 15.5 18.878906 16.253906 18.878906 16.75 18.433594 L 26.460938 9.804688 L 26.460938 17.449219 L 29.105469 17.449219 L 29.105469 8.1875 C 29.105469 6.722656 27.925781 5.542969 26.460938 5.542969 Z M 7.441406 8.1875 L 24.3125 8.1875 L 15.875 15.6875 Z M 7.441406 8.1875 "/>
</g>
</svg>
